icons/sun-regular.svg

<svg width="512" height="512" viewBox="0 0 512 512" fill="none" xmlns="http://www.w3.org/2000/svg">
<g clip-path="url(#clip0_1_4)">
<path d="M375.7 19.7C374.2 11.7 368.8 5.00001 361.3 1.90001C353.8 -1.19999 345.2 -0.299992 338.5 4.30001L256 61.1L173.5 4.20001C166.8 -0.399992 158.2 -1.29999 150.7 1.80001C143.2 4.90001 137.8 11.6 136.3 19.6L118.2 118.1L19.7 136.3C11.7 137.8 5.00001 143.2 1.90001 150.7C-1.19999 158.2 -0.299992 166.8 4.30001 173.5L61.1 256L4.20001 338.5C-0.399992 345.2 -1.29999 353.8 1.80001 361.3C4.90001 368.8 11.6 374.3 19.6 375.7L118.1 393.8L136.2 492.3C137.7 500.3 143.1 507 150.6 510.1C158.1 513.2 166.7 512.3 173.4 507.7L256 450.9L338.5 507.8C345.2 512.4 353.8 513.3 361.3 510.2C368.8 507.1 374.2 500.4 375.7 492.4L393.8 393.9L492.3 375.8C500.3 374.3 507 368.9 510.1 361.4C513.2 353.9 512.3 345.3 507.7 338.6L450.9 256L507.8 173.5C512.4 166.8 513.3 158.2 510.2 150.7C507.1 143.2 500.4 137.8 492.4 136.3L393.9 118.2L375.7 19.7ZM269.6 110L335.2 64.8L349.6 143.1C351.4 152.9 359.1 160.6 368.9 162.4L447.2 176.8L402 242.4C396.3 250.6 396.3 261.4 402 269.6L447.2 335.2L368.9 349.6C359.1 351.4 351.4 359.1 349.6 368.9L335.2 447.2L269.6 402C261.4 396.3 250.6 396.3 242.4 402L176.8 447.2L162.4 368.9C160.6 359.1 152.9 351.4 143.1 349.6L64.8 335.2L110 269.6C115.7 261.4 115.7 250.6 110 242.4L64.8 176.8L143.1 162.4C152.9 160.6 160.6 152.9 162.4 143.1L176.8 64.8L242.4 110C250.6 115.7 261.4 115.7 269.6 110ZM256 368C285.704 368 314.192 356.2 335.196 335.196C356.2 314.192 368 285.704 368 256C368 226.296 356.2 197.808 335.196 176.804C314.192 155.8 285.704 144 256 144C226.296 144 197.808 155.8 176.804 176.804C155.8 197.808 144 226.296 144 256C144 285.704 155.8 314.192 176.804 335.196C197.808 356.2 226.296 368 256 368ZM192 256C192 239.026 198.743 222.748 210.745 210.745C222.748 198.743 239.026 192 256 192C272.974 192 289.252 198.743 301.255 210.745C313.257 222.748 320 239.026 320 256C320 272.974 313.257 289.252 301.255 301.255C289.252 313.257 272.974 320 256 320C239.026 320 222.748 313.257 210.745 301.255C198.743 289.252 192 272.974 192 256Z" fill="#FFD43B"/>
</g>
<defs>
<clipPath id="clip0_1_4">
<rect width="512" height="512" fill="white"/>
</clipPath>
</defs>
</svg>

<svg xmlns="http://www.w3.org/2000/svg" viewBox="0 0 512 512"><!--! Font Awesome Pro 6.3.0 by @fontawesome - https://fontawesome.com License - https://fontawesome.com/license (Commercial License) Copyright 2023 Fonticons, Inc. --><path d="M375.7 19.7c-1.5-8-6.9-14.7-14.4-17.8s-16.1-2.2-22.8 2.4L256 61.1 173.5 4.2c-6.7-4.6-15.3-5.5-22.8-2.4s-12.9 9.8-14.4 17.8l-18.1 98.5L19.7 136.3c-8 1.5-14.7 6.9-17.8 14.4s-2.2 16.1 2.4 22.8L61.1 256 4.2 338.5c-4.6 6.7-5.5 15.3-2.4 22.8s9.8 13 17.8 14.4l98.5 18.1 18.1 98.5c1.5 8 6.9 14.7 14.4 17.8s16.1 2.2 22.8-2.4L256 450.9l82.5 56.9c6.7 4.6 15.3 5.5 22.8 2.4s12.9-9.8 14.4-17.8l18.1-98.5 98.5-18.1c8-1.5 14.7-6.9 17.8-14.4s2.2-16.1-2.4-22.8L450.9 256l56.9-82.5c4.6-6.7 5.5-15.3 2.4-22.8s-9.8-12.9-17.8-14.4l-98.5-18.1L375.7 19.7zM269.6 110l65.6-45.2 14.4 78.3c1.8 9.8 9.5 17.5 19.3 19.3l78.3 14.4L402 242.4c-5.7 8.2-5.7 19 0 27.2l45.2 65.6-78.3 14.4c-9.8 1.8-17.5 9.5-19.3 19.3l-14.4 78.3L269.6 402c-8.2-5.7-19-5.7-27.2 0l-65.6 45.2-14.4-78.3c-1.8-9.8-9.5-17.5-19.3-19.3L64.8 335.2 110 269.6c5.7-8.2 5.7-19 0-27.2L64.8 176.8l78.3-14.4c9.8-1.8 17.5-9.5 19.3-19.3l14.4-78.3L242.4 110c8.2 5.7 19 5.7 27.2 0zM256 368a112 112 0 1 0 0-224 112 112 0 1 0 0 224zM192 256a64 64 0 1 1 128 0 64 64 0 1 1 -128 0z"/></svg>
